Newaita-dark/apps/16/prime-intel.svg

<svg height="16" viewBox="0 0 16 16" width="16" xmlns="http://www.w3.org/2000/svg"><path d="m1.207031.820312c-.300781 0-.546875.242188-.546875.546876v12.734374c0 .300782.246094.542969.546875.542969h13.460938c.304687 0 .546875-.242187.546875-.542969v-12.734374c0-.304688-.242188-.546876-.546875-.546876zm.796875.957032h11.871094c.183594 0 .332031.148437.332031.332031v11.246094c0 .183593-.148437.332031-.332031.332031h-11.871094c-.183594 0-.332031-.148438-.332031-.332031v-11.246094c0-.183594.148437-.332031.332031-.332031zm.125 3.0625v.726562h.734375v-.726562zm10.792969.726562v3.457032c0 .410156.105469.636718.738281.695312v-4.152344zm-5.8125.039063v2.800781c0 .460938.050781 1.3125.738281 1.3125h.738282v-.726562h-.5c-.199219 0-.238282-.542969-.238282-.726563v-1.039063h.738282v-.726562h-.738282v-.894531zm4.039063.789062c-.878907 0-1.546876.597657-1.546876 1.65625 0 1.238281.765626 1.664063 1.5625 1.664063.613282 0 .960938-.191406 1.292969-.507813l-.515625-.480469c-.210937.207032-.398437.304688-.769531.304688-.4375 0-.695313-.269531-.726563-.644531h2.105469v-.371094c0-.917969-.511719-1.621094-1.402343-1.621094zm-9.019532 0v2.328125c0 .394532.101563.941406.734375.996094v-3.324219zm1.382813 0v3.324219h.738281v-2.660156h.980469c.246093 0 .496093.15625.496093.332031v2.328125h.738282v-2.328125c0-.417969-.371094-1-1.109375-.996094zm7.5625.664063c.410156 0 .738281.296875.738281.664062h-1.476562c0-.367187.332031-.664062.738281-.664062zm0 0" fill="#e0e0e0"/></svg>

<?xml version="1.0" encoding="UTF-8"?>
<svg xmlns="http://www.w3.org/2000/svg" xmlns:xlink="http://www.w3.org/1999/xlink" width="16px" height="16px" viewBox="0 0 16 16" version="1.1">
<g id="surface1">
<path style=" stroke:none;fill-rule:nonzero;fill:rgb(87.843138%,87.843138%,87.843138%);fill-opacity:1;" d="M 1.207031 0.820312 C 0.90625 0.820312 0.660156 1.0625 0.660156 1.367188 L 0.660156 14.101562 C 0.660156 14.402344 0.90625 14.644531 1.207031 14.644531 L 14.667969 14.644531 C 14.972656 14.644531 15.214844 14.402344 15.214844 14.101562 L 15.214844 1.367188 C 15.214844 1.0625 14.972656 0.820312 14.667969 0.820312 Z M 2.003906 1.777344 L 13.875 1.777344 C 14.058594 1.777344 14.207031 1.925781 14.207031 2.109375 L 14.207031 13.355469 C 14.207031 13.539062 14.058594 13.6875 13.875 13.6875 L 2.003906 13.6875 C 1.820312 13.6875 1.671875 13.539062 1.671875 13.355469 L 1.671875 2.109375 C 1.671875 1.925781 1.820312 1.777344 2.003906 1.777344 Z M 2.128906 4.839844 L 2.128906 5.566406 L 2.863281 5.566406 L 2.863281 4.839844 Z M 12.921875 5.566406 L 12.921875 9.023438 C 12.921875 9.433594 13.027344 9.660156 13.660156 9.71875 L 13.660156 5.566406 Z M 7.109375 5.605469 L 7.109375 8.40625 C 7.109375 8.867188 7.160156 9.71875 7.847656 9.71875 L 8.585938 9.71875 L 8.585938 8.992188 L 8.085938 8.992188 C 7.886719 8.992188 7.847656 8.449219 7.847656 8.265625 L 7.847656 7.226562 L 8.585938 7.226562 L 8.585938 6.5 L 7.847656 6.5 L 7.847656 5.605469 Z M 11.148438 6.394531 C 10.269531 6.394531 9.601562 6.992188 9.601562 8.050781 C 9.601562 9.289062 10.367188 9.714844 11.164062 9.714844 C 11.777344 9.714844 12.125 9.523438 12.457031 9.207031 L 11.941406 8.726562 C 11.730469 8.933594 11.542969 9.03125 11.171875 9.03125 C 10.734375 9.03125 10.476562 8.761719 10.445312 8.386719 L 12.550781 8.386719 L 12.550781 8.015625 C 12.550781 7.097656 12.039062 6.394531 11.148438 6.394531 Z M 2.128906 6.394531 L 2.128906 8.722656 C 2.128906 9.117188 2.230469 9.664062 2.863281 9.71875 L 2.863281 6.394531 Z M 3.511719 6.394531 L 3.511719 9.71875 L 4.25 9.71875 L 4.25 7.058594 L 5.230469 7.058594 C 5.476562 7.058594 5.726562 7.214844 5.726562 7.390625 L 5.726562 9.71875 L 6.464844 9.71875 L 6.464844 7.390625 C 6.464844 6.972656 6.09375 6.390625 5.355469 6.394531 Z M 11.074219 7.058594 C 11.484375 7.058594 11.8125 7.355469 11.8125 7.722656 L 10.335938 7.722656 C 10.335938 7.355469 10.667969 7.058594 11.074219 7.058594 Z M 11.074219 7.058594 "/>
</g>
</svg>
